rospo-newyear-dark/symbolic/status/process-completed-symbolic.svg

<svg height="16" width="16" xmlns="http://www.w3.org/2000/svg"><path d="m8 1a7 7 0 0 0 -7 7 7 7 0 0 0 7 7 7 7 0 0 0 7-7 7 7 0 0 0 -.619-2.8555l-7.2912 8.3555-3.7793-3.75c-.4557-.4558-.37-1.0595 0-1.4395.38-.37.9777-.4497 1.4395 0l2.25 2.2505 6.258-7.1684a7 7 0 0 0 -5.258-2.3926z" fill="#d3dae3"/></svg>

<svg xmlns="http://www.w3.org/2000/svg" width="16" height="16" version="1.1">
 <path style="fill:#d3dae3" d="M 8,1 A 7,7 0 0 0 1,8 7,7 0 0 0 8,15 7,7 0 0 0 15,8 7,7 0 0 0 14.381,5.1445 L 7.0898,13.5 3.3105,9.75 C 2.8548,9.2942 2.9405,8.6905 3.3105,8.3105 3.6905,7.9405 4.2882,7.8608 4.75,8.3105 L 7,10.561 13.258,3.3926 A 7,7 0 0 0 8,1 Z"/>
</svg>
